client/public/assets/icons/standard/messaging_user.svg

<svg xmlns="http://www.w3.org/2000/svg" width="100" height="100" viewBox="0 0 100 100">
  <path fill="#FFFFFF" d="M50,22 L50,22 C66.6,22 80,34.5 80.1,50 C80.1,65.5 66.7,78 50.1,78 C44.3,78 38.9,76.5 34.3,73.8 C33.8,73.5 33.2,73.4 32.6,73.6 L23.8,76.7 C22.2,77.2 20.7,75.8 21.2,74.2 L24,65.3 C24.2,64.8 24.1,64.2 23.8,63.7 C21.4,59.6 20,55 20,50 C20,34.5 33.4,22 50,22 Z M58.7574792,64 L58.7574792,64 C60.672004,64 62.1834709,61.8924731 61.981942,59.8853047 C61.8811775,56.874552 58.7574792,54.8673835 55.4322519,53.4623656 C53.1146693,52.5591398 52.8123759,51.655914 52.8123759,50.6523297 C52.8123759,49.6487455 53.4169627,48.7455197 54.2230784,48.0430108 C55.6337809,46.8387097 56.3391321,45.0322581 56.3391321,43.0250896 C56.3391321,39.2114695 54.0215495,36 49.990971,36 C45.9603925,36 43.6428099,39.2114695 43.6428099,43.0250896 C43.6428099,45.0322581 44.4489256,46.8387097 45.7588636,48.0430108 C46.5649793,48.7455197 47.1695661,49.6487455 47.1695661,50.6523297 C47.1695661,51.655914 46.8672727,52.5591398 44.54969,53.562724 C41.2244628,55.0681004 38.1007645,56.874552 38,59.8853047 C38,61.8924731 39.5114669,64 41.4259917,64 L58.7574792,64 Z"/>
</svg>

<?xml version="1.0"?><svg xmlns="http://www.w3.org/2000/svg" width="100" height="100" viewBox="0 0 100 100"><path fill="#fff" d="m50 22c16.6 0 30 12.5 30.1 28 0 15.5-13.4 28-30 28-5.8 0-11.2-1.5-15.8-4.2-0.5-0.3-1.1-0.4-1.7-0.2l-8.8 3.1c-1.6 0.5-3.1-0.9-2.6-2.5l2.8-8.9c0.2-0.5 0.1-1.1-0.2-1.6-2.4-4.1-3.8-8.7-3.8-13.7 0-15.5 13.4-28 30-28z m8.8 42c1.9 0 3.4-2.1 3.2-4.1-0.1-3-3.2-5-6.6-6.4-2.3-0.9-2.6-1.8-2.6-2.8 0-1.1 0.6-2 1.4-2.7 1.4-1.2 2.1-3 2.1-5 0-3.8-2.3-7-6.3-7-4 0-6.4 3.2-6.4 7 0 2 0.8 3.8 2.2 5 0.8 0.7 1.4 1.6 1.4 2.7 0 1-0.3 1.9-2.7 2.9-3.3 1.5-6.4 3.3-6.5 6.3 0 2 1.5 4.1 3.4 4.1h17.4z"></path></svg>
